!!!!SEGMENT: pl-wumfc--r282--002-005_paderewski-ignacy-jan--exercises-2-exercise-5.krn
!!!cenid: 18xx:3180
!!!COM: Paderewski, Ignacy Jan
!!!COM-rismid: pe30029943
!!!CDT: 1860/11/18-1941/06/29
!!!CNT: Polish
!!!GTL: [Exercises 2]
!!!OTL: [Exercise] 5
!!!OMV: 005
!!!PDT:
!!!AGN:
!!!SMS-siglum: PL-Wumfc
!!!SMS-shelfmark: R282
!!!SMS-shelfwork: 002-005 G
!!!SMS-variant:
!!!SMS-altvar:
!!!NIFC-rismid: 1001158933
!!!URL-scan: http://repozytorium.nifc.pl/skany/pl-wumfc--r282
!!!ONB-nifc: UWAGA: druga grupa ćwiczeń od skanu 0008
!!!key: G
**kern	**kern
*part2	*part1
*group1	*group1
*staff2	*staff1
*I"[Pianoforte]	*I"[Pianoforte]
*I'	*I'
*Ipiano	*Ipiano
*ICklav	*ICklav
*clefF4	*clefG2
*k[]	*k[]
*C:	*C:
*M	*M
*	*^
!	!LO:TX:a:t=C. f.	!
2g\	2g/	2g\
=1	=1	=1
2e\	[2b/	2g\
!	!	!LO:SIC:v:s=2f#\
2d\	2b/]	2f\
2c\	2cc/	2e\
2B\	2dd/	2d\
=2	=2	=2
2E\	2ee/	2g\
!LO:SIC:v:s=2F#\	!	!
2F\	2dd/	2a\
2G;\	2b;/	2b\
2e\	2gg/	2b\
=3	=3	=3
!	!LO:SIC:v:s=2ff#/	!
2d\	2ff/	2b\
2g\	2ee/	2b\
!LO:SIC:v:s=2f#\	!LO:SIC:v:s=2ff#/	!
2f\	2ff/	2a\
2e\	2gg/	2g\
=4	=4	=4
2c\	2ee/	2cc\
2d\	2dd/	2b\
2c;\	2ee;/	2a;\
2e\	2gg/	2g\
=5	=5	=5
!	!LO:SIC:v:s=2ff#/	!
2d\	2ff/	2a\
2G\	2ee/	2b\
!	!LO:TX:t=P:problem:ołówkiem poprawione 2f fna 2cc	!
2A\	2cc/	2a\
2B\	2dd/	2g\
=6	=6	=6
2c\	2ee/	2e\
!LO:SIC:v:s=2f#\	!	!LO:SIC:v:s=2f#\
2f\	2dd/	2f\
2e;\	2b;/	2g;\
2d\	2dd/	2dd\
=7	=7	=7
2G\	2ee/	2b\
2e\	2gg/	2g\
!	!LO:SIC:v:s=2ff#/	!
2d\	2ff/	2a\
2c\	2ee/	2cc\
=8	=8	=8
2d\	[2dd/	2b\
!LO:SIC:v:s=2f#\	!	!
2f\	2dd/]	2a\
2g;\	2b;/	2g;\
*	*v	*v
==	==
*-	*-
!!!system-decoration: [g1]
!!!RDF**kern: > = above
!!!RDF**kern: < = below
!!!ENC: Katarzyna Serwa
!!!END: 2021-11-16
!!!ENC:Anastazja Marusiak
!!!END:2021-11-12
